Yaru++/actions/16/dialog-layers.svg

<svg viewBox="0 0 16 16" xmlns="http://www.w3.org/2000/svg"><path d="m4.5000001 1.6666663-3.5000001 3.5000001h10.5l3.5-3.5000001zm0 4.6666667-3.5000001 3.4999999h10.5l3.5-3.4999999zm0 4.666667-3.5000001 3.5h10.5l3.5-3.5z" fill="#808080"/></svg>

<svg xmlns="http://www.w3.org/2000/svg" version="1.1" viewBox="0 0 16 16">
 <defs>
  <style id="current-color-scheme" type="text/css">
   .ColorScheme-Text { color:#808080; }
  </style>
 </defs>
 <path style="fill:currentColor" class="ColorScheme-Text" d="M 4.5000001,1.6666663 1,5.1666664 H 11.5 L 15,1.6666663 Z m 0,4.6666667 L 1,9.8333329 H 11.5 L 15,6.333333 Z M 4.5000001,11 1,14.5 H 11.5 L 15,11 Z"/>
</svg>
